X:1
T:Title
%%score { 1 | 2 }
L:1/8
Q:1/4=100
M:4/4
K:G
V:1 treble nm="Grand Piano"
V:2 treble 
V:1
 d2 de d2 B[DA] | [EG]2 [DF]E D2 G2 | [FA]2 [FA][GB] [Ac]2 [GB][FA] | [Fd]2 [Ac]>[FA] B4 | %4
w: Chas.~Edw.~Prior * * * * *||||
 d2 de d2 B[DA] | [EG]2 [DF]E D2 G2 | [EA]2 [Ge][Ge] [Ge] [Gd]2 B | G2 A>B G4 | A2 AA c2 AA | %9
w: |||||
 B2 e>^c d2 B2 | A2 AA c2 Ae | d2 c>c B4 | d2 de d2 B[DA] | [EG]2 [DF]E D2 G2 | %14
w: |||||
 [EA]2 [Ge][Ge] [Ge] [Gd]2 [DB] | %15
w: |
 [B,DG]2 [CFA]>[DFB] [B,G]4[Q:1/4=98][Q:1/4=97][Q:1/4=95][Q:1/4=94][Q:1/4=92][Q:1/4=91][Q:1/4=89][Q:1/4=88][Q:1/4=86][Q:1/4=84][Q:1/4=83][Q:1/4=81][Q:1/4=80][Q:1/4=78][Q:1/4=77] |] %16
w: |
V:2
 [G,B,G]2 [G,B,G][G,CG] [G,B,G]2 [G,D][K:bass][B,,G,] | [C,G,]2 [C,G,][E,G,C] [G,B,]2 [G,B,D]2 | %2
 [D,D]2 [D,D][D,D] [D,D]2 [D,D][D,D] | [D,A,]2 [D,D]>[D,D][K:treble] [G,DG]4 | %4
 [G,B,G]2 [G,B,G][G,CG] [G,B,G]2[K:bass] [G,D][B,,G,] | [C,G,]2 [C,G,][E,G,C] [G,B,]2 [G,B,D]2 | %6
 [C,C]2 [C,C][C,C] [D,B,] [D,B,]2 [D,G,D] | [D,B,D]2 [D,CD]>[D,D][K:treble] [G,B,D]4 | %8
 F2 FF A2 FF | G2 c>_B =B2 G2 | F2 FF A2 Fc | B2 A>A G4 | %12
 [G,B,G]2 [G,B,G][G,CG] [G,B,G]2[K:bass] [G,D][B,,G,] | [C,G,]2 [C,G,][E,G,C] [G,B,]2 [G,B,D]2 | %14
 [C,C]2 [C,C][C,C] [D,B,] [D,B,]2 [D,G,] | D,2 D,>D, G,,4 |] %16

